packages/storefront-lwc/src/assets/fonts/flags/4x3/tz.svg

<svg height="480" width="640" xmlns="http://www.w3.org/2000/svg" xmlns:xlink="http://www.w3.org/1999/xlink"><clipPath id="a"><path d="m10 0h160v120h-160z"/></clipPath><g clip-path="url(#a)" fill-rule="evenodd" stroke-width="1pt" transform="matrix(4 0 0 4 -40 0)"><path d="m0 0h180v120h-180z" fill="#09f"/><path d="m0 0h180l-180 120z" fill="#090"/><path d="m0 120h40l140-95v-25h-40l-140 95z"/><path d="m0 91.456 137.18-91.456h13.52l-150.7 100.47zm29.295 28.544 150.7-100.47v9.014l-137.18 91.456z" fill="#ff0"/></g></svg>

<svg xmlns="http://www.w3.org/2000/svg" height="480" width="640" id="flag-icon-css-tz">
  <defs>
    <clipPath id="a">
      <path fill-opacity=".67" d="M10 0h160v120H10z"/>
    </clipPath>
  </defs>
  <g clip-path="url(#a)" fill-rule="evenodd" transform="matrix(4 0 0 4 -40 0)" stroke-width="1pt">
    <path fill="#09f" d="M0 0h180v120H0z"/>
    <path d="M0 0h180L0 120V0z" fill="#090"/>
    <path d="M0 120h40l140-95V0h-40L0 95v25z"/>
    <path d="M0 91.456L137.18 0h13.52L0 100.47v-9.014zM29.295 120l150.7-100.47v9.014L42.815 120h-13.52z" fill="#ff0"/>
  </g>
</svg>
